src/icons/svg/FindSelected.svg

<!-- Generated by IcoMoon.io -->
<svg version="1.1" xmlns="http://www.w3.org/2000/svg" width="24" height="24" viewBox="0 0 24 24">
<title>find-selected</title>
<path fill="#444" d="M9.596 2.741c1.892 0 3.605 0.768 4.853 2.001l-3.482 3.482h8.225v-8.224l-2.81 2.81c-1.741-1.741-4.14-2.81-6.786-2.81-4.839 0-8.814 3.578-9.486 8.224h2.769c0.631-3.125 3.4-5.483 6.717-5.483zM17.327 15.27c0.905-1.234 1.535-2.7 1.755-4.304h-2.769c-0.631 3.125-3.4 5.483-6.717 5.483-1.892 0-3.605-0.768-4.853-2.001l3.482-3.482h-8.225v8.224l2.81-2.81c1.741 1.741 4.14 2.81 6.786 2.81 2.125 0 4.085-0.699 5.675-1.864l6.662 6.648 2.042-2.042-6.648-6.662z"></path>
</svg>

<svg width="24" height="24" viewBox="0 0 24 24" fill="none" xmlns="http://www.w3.org/2000/svg">
<path d="M9.596 2.741C11.488 2.741 13.201 3.509 14.449 4.742L10.967 8.224H19.192V0L16.382 2.81C14.641 1.069 12.242 0 9.596 0C4.757 0 0.782 3.578 0.11 8.224H2.879C3.51 5.099 6.279 2.741 9.596 2.741V2.741ZM17.327 15.27C18.232 14.036 18.862 12.57 19.082 10.966H16.313C15.682 14.091 12.913 16.449 9.596 16.449C7.704 16.449 5.991 15.681 4.743 14.448L8.225 10.966H0V19.19L2.81 16.38C4.551 18.121 6.95 19.19 9.596 19.19C11.721 19.19 13.681 18.491 15.271 17.326L21.933 23.974L23.975 21.932L17.327 15.27V15.27Z" fill="#1C2125"/>
</svg>
